svg/gradle.svg

<?xml version="1.0" encoding="UTF-8"?>
<svg xmlns="http://www.w3.org/2000/svg" xmlns:xlink="http://www.w3.org/1999/xlink" width="32" height="32" viewBox="0 0 32 32">
<path fill-rule="nonzero" fill="rgb(45.490196%, 72.156863%, 76.862745%)" fill-opacity="1" d="M 30.242188 6.589844 C 29.183594 4.671875 27.265625 4.03125 25.917969 4.03125 C 24.222656 3.96875 22.878906 4.929688 23.167969 5.566406 C 23.230469 5.664062 23.550781 6.367188 23.746094 6.625 C 24 7.007812 24.542969 6.71875 24.703125 6.625 C 25.246094 6.367188 25.757812 6.242188 26.398438 6.367188 C 27.039062 6.433594 27.777344 6.785156 28.320312 7.808594 C 29.535156 10.207031 25.664062 15.265625 20.769531 11.742188 C 15.871094 8.222656 11.136719 9.441406 9.023438 10.082031 C 6.878906 10.785156 5.886719 11.457031 6.71875 13.121094 C 7.902344 15.296875 7.519531 14.65625 8.640625 16.480469 C 10.464844 19.359375 14.335938 15.136719 14.335938 15.136719 C 11.390625 19.390625 8.960938 18.398438 8 16.894531 C 7.136719 15.550781 6.464844 13.984375 6.464844 13.984375 C -0.832031 16.578125 1.121094 27.96875 1.121094 27.96875 L 4.800781 27.96875 C 5.757812 23.777344 9.054688 23.9375 9.632812 27.96875 L 12.382812 27.96875 C 14.878906 19.777344 21.121094 27.96875 21.121094 27.96875 L 24.734375 27.96875 C 23.710938 22.335938 26.753906 20.574219 28.671875 17.3125 C 30.433594 14.144531 32.257812 10.082031 30.242188 6.589844 M 20.863281 17.375 C 18.945312 16.734375 19.648438 14.816406 19.648438 14.816406 C 19.648438 14.816406 21.34375 15.390625 23.585938 16.097656 C 23.425781 16.734375 22.242188 17.855469 20.863281 17.375 M 20.863281 17.375 "/>
</svg>

<svg role="img" viewBox="0 0 32 32" height="32" width="32" xmlns="http://www.w3.org/2000/svg"><path d="M30.242 6.59c-1.058-1.918-2.976-2.559-4.324-2.559-1.695-.062-3.04.899-2.75 1.535.062.098.383.801.578 1.059.254.383.797.094.957 0 .543-.258 1.055-.383 1.695-.258.641.067 1.38.418 1.922 1.442 1.215 2.398-2.656 7.457-7.55 3.933-4.899-3.52-9.633-2.3-11.747-1.66-2.144.703-3.136 1.375-2.304 3.04 1.183 2.175.8 1.534 1.922 3.358 1.824 2.88 5.695-1.343 5.695-1.343C11.39 19.39 8.96 18.398 8 16.895c-.863-1.344-1.535-2.91-1.535-2.91C-.832 16.577 1.12 27.968 1.12 27.968H4.8c.957-4.192 4.254-4.032 4.832 0h2.75c2.496-8.192 8.738 0 8.738 0h3.613c-1.023-5.633 2.02-7.395 3.938-10.657 1.762-3.167 3.586-7.23 1.57-10.722m-9.379 10.785c-1.918-.64-1.215-2.559-1.215-2.559s1.696.575 3.938 1.282c-.16.636-1.344 1.757-2.723 1.277m0 0" fill="rgb(45.490196%, 72.156863%, 76.862745%)"/></svg>
